X:236
T:Sailor's Wife, The
R:Jig
Z:1997 by John Chambers <jc@trillian.mit.edu>
M:6/8
L:1/8
Q:116
K:Dm
|:E |"Dm" DEF E2D | d2e f2g | agf  edc  | "C"  AcA GEC |!
"Dm" DEF E2D | d2e f2g | agf "A" ed^c | "Dm" d3     D2 e |!
|"F"  fga fga |     fga "G7" agf | "C"  ecg      ecg  |    efg "Am"gfe |!
|"Dm" fga agf | "C" efg gfe | "Dm" def "A" ed^c | "Dm" d3    D2 :|
